img/svg/online-school/gift.svg

<svg width="24" height="24" viewBox="0 0 24 24" fill="none" xmlns="http://www.w3.org/2000/svg">
<g clip-path="url(#clip0_8517_49862)">
<path d="M18.95 4.41637L18.851 5H19.443H22.5C22.7652 5 23.0196 5.10536 23.2071 5.29289C23.3946 5.48043 23.5 5.73478 23.5 6V9C23.5 9.26522 23.3946 9.51957 23.2071 9.70711C23.0196 9.89464 22.7652 10 22.5 10H22V10.5V21.75C22 22.2141 21.8156 22.6592 21.4874 22.9874C21.1592 23.3156 20.7141 23.5 20.25 23.5H3.75C3.28587 23.5 2.84075 23.3156 2.51256 22.9874C2.18437 22.6592 2 22.2141 2 21.75V10.5V10H1.5C1.23478 10 0.98043 9.89464 0.792894 9.70711L0.440188 10.0598L0.792893 9.70711C0.605357 9.51957 0.5 9.26522 0.5 9V6C0.5 5.73478 0.605357 5.48043 0.792893 5.29289C0.98043 5.10536 1.23478 5 1.5 5H4.557H5.14436L5.05059 4.42018C5.01542 4.20271 4.99849 3.98268 4.99999 3.7624H5V3.759V3.75C5 2.88805 5.34241 2.0614 5.9519 1.4519C6.5614 0.84241 7.38805 0.5 8.25 0.5C9.11195 0.5 9.9386 0.84241 10.5481 1.4519C11.1576 2.0614 11.5 2.88805 11.5 3.75H12H12.5C12.5 2.88805 12.8424 2.0614 13.4519 1.4519C14.0614 0.84241 14.888 0.5 15.75 0.5C16.612 0.5 17.4386 0.84241 18.0481 1.4519C18.6576 2.0614 19 2.88805 19 3.75V3.759C19 3.859 18.9996 4.12397 18.95 4.41637ZM5.63918 4.68921L5.76624 5H6.102H10.5H11V4.5V3.75C11 3.38886 10.9289 3.03127 10.7907 2.69762C10.6525 2.36397 10.4499 2.06082 10.1945 1.80546C9.93918 1.55009 9.63602 1.34753 9.30238 1.20933L9.11104 1.67127L9.30238 1.20933C8.96873 1.07113 8.61114 1 8.25 1C7.88886 1 7.53127 1.07113 7.19762 1.20933C6.86398 1.34753 6.56082 1.55009 6.30546 1.80546C6.0501 2.06082 5.84753 2.36398 5.70933 2.69762C5.57113 3.03127 5.5 3.38886 5.5 3.75C5.5 3.87371 5.50083 4.21713 5.58414 4.52298C5.59868 4.57957 5.61707 4.63512 5.63918 4.68921ZM13 4.5V5H13.5H17.898H18.2355L18.3617 4.68698C18.3832 4.63379 18.4012 4.57927 18.4156 4.52378C18.4992 4.21772 18.5 3.87381 18.5 3.75C18.5 3.02065 18.2103 2.32118 17.6945 1.80546C17.1788 1.28973 16.4793 1 15.75 1C15.0207 1 14.3212 1.28973 13.8055 1.80546C13.2897 2.32118 13 3.02065 13 3.75V4.5ZM1.5 5.5H1V6V9V9.5H1.5H10.5H11V9V6V5.5H10.5H1.5ZM13.5 5.5H13V6V9V9.5H13.5H22.5H23V9V6V5.5H22.5H13.5ZM21.5 10.5V10H21H13.5H13V10.5V22.5V23H13.5H20.25C20.5815 23 20.8995 22.8683 21.1339 22.6339C21.3683 22.3995 21.5 22.0815 21.5 21.75V10.5ZM10.5 23H11V22.5V10.5V10H10.5H3H2.5V10.5V21.75C2.5 22.0815 2.6317 22.3995 2.86612 22.6339C3.10054 22.8683 3.41848 23 3.75 23H10.5Z" fill="#FBFBFB" stroke="#FBFBFB"/>
</g>
<defs>
<clipPath id="clip0_8517_49862">
<rect width="24" height="24" fill="white"/>
</clipPath>
</defs>
</svg>

<svg width="24" height="24" fill="none" xmlns="http://www.w3.org/2000/svg"><g clip-path="url(#clip0_8517_49862)"><path d="M18.95 4.416L18.851 5H22.5a1 1 0 011 1v3a1 1 0 01-1 1H22v11.75a1.75 1.75 0 01-1.75 1.75H3.75A1.75 1.75 0 012 21.75V10h-.5a1 1 0 01-.707-.293l-.353.353.353-.353A1 1 0 01.5 9V6a1 1 0 011-1h3.644l-.093-.58A3.952 3.952 0 015 3.762h0V3.75a3.25 3.25 0 016.5 0h1a3.25 3.25 0 116.5 0v.009c0 .1 0 .365-.05.657zM5.64 4.69l.125.31H11V3.75a2.75 2.75 0 00-1.698-2.54l-.191.461.191-.462A2.75 2.75 0 005.5 3.75c0 .124 0 .467.084.773.015.057.033.112.055.166zM13 4.5V5h5.235l.127-.313a1.32 1.32 0 00.054-.163c.083-.306.084-.65.084-.774a2.75 2.75 0 10-5.5 0v.75zm-11.5 1H1v4h10v-4H1.5zm12 0H13v4h10v-4h-9.5zm8 5V10H13v13h7.25a1.25 1.25 0 001.25-1.25V10.5zM10.5 23h.5V10H2.5v11.75A1.25 1.25 0 003.75 23h6.75z" fill="#FBFBFB" stroke="#FBFBFB"/></g><defs><clipPath id="clip0_8517_49862"><path fill="#fff" d="M0 0h24v24H0z"/></clipPath></defs></svg>
